svg/rancher-fleet.svg

<svg xmlns="http://www.w3.org/2000/svg" xml:space="preserve" viewBox="0 0 512 512"><path d="M51.2 44.8h409.6c28.3 0 51.2 22.9 51.2 51.2v320c0 28.3-22.9 51.2-51.2 51.2H51.2C22.9 467.2 0 444.3 0 416V96c0-28.3 22.9-51.2 51.2-51.2" style="fill:#00b056"/><path d="M405 302.5c-1.2-2.6-2.3-5.2-3.5-7.8-20.3-43.5-44.9-84.8-73.6-123.2-7-9.4-14.2-18.6-21.7-27.6v180.3h108.2c-3-7.2-6.1-14.5-9.4-21.7m-77.1 0V209c20.2 29.7 38 61 53.2 93.5zm-64.4-196c-44.4 59.5-79 125.7-102.7 196-2.4 7.2-4.8 14.4-7 21.7h131.3V78.9q-11.1 13.5-21.6 27.6m0 196h-79.8c19.6-56.1 46.4-109.4 79.8-158.6zm-143.3 21.7h22.6c23.6-82.4 62.4-159.6 114.4-227.6l-27.4 16.6c-6.7 4-13.3 8.2-19.8 12.5-40.1 61.2-70.3 128.1-89.8 198.5m-33.3 0h22.4c10.4-40 24.5-79 42-116.5 9.7-20.9 20.4-41.1 32.1-60.7-14.8 10.7-29.2 22-43.1 33.8-2.9 5.9-5.8 11.8-8.6 17.7-19 40.4-33.9 82.5-44.8 125.7m328.4 45.3v26.1l-227.1.4-16.3-26.1zm21.7-21.8-304.2.6 43.4 69.5 260.8-.6zm-272 70-43.4-69.5H96l43.4 69.5zm-36.4 0-43.4-69.5H59.6l43.4 69.5z" style="fill:#fff"/></svg>

<?xml version="1.0" encoding="utf-8"?>
<!-- Generator: Adobe Illustrator 28.2.0, SVG Export Plug-In . SVG Version: 6.00 Build 0)  -->
<svg version="1.1" id="Layer_1" xmlns="http://www.w3.org/2000/svg" xmlns:xlink="http://www.w3.org/1999/xlink" x="0px" y="0px"
	 viewBox="0 0 512 512" style="enable-background:new 0 0 512 512;" xml:space="preserve">
<style type="text/css">
	.st0{fill:#00B056;}
	.st1{fill:#FFFFFF;}
</style>
<path class="st0" d="M51.2,44.8h409.6c28.3,0,51.2,22.9,51.2,51.2v320c0,28.3-22.9,51.2-51.2,51.2H51.2C22.9,467.2,0,444.3,0,416V96
	C0,67.7,22.9,44.8,51.2,44.8z"/>
<path class="st1" d="M405,302.5c-1.2-2.6-2.3-5.2-3.5-7.8c-20.3-43.5-44.9-84.8-73.6-123.2c-7-9.4-14.2-18.6-21.7-27.6v180.3h108.2
	C411.4,317,408.3,309.7,405,302.5z M327.9,302.5V209c20.2,29.7,38,61,53.2,93.5H327.9z M263.5,106.5c-44.4,59.5-79,125.7-102.7,196
	c-2.4,7.2-4.8,14.4-7,21.7h131.3V78.9C277.7,87.9,270.5,97.1,263.5,106.5z M263.5,302.5h-79.8c19.6-56.1,46.4-109.4,79.8-158.6
	V302.5z M120.2,324.2h22.6c23.6-82.4,62.4-159.6,114.4-227.6l-27.4,16.6c-6.7,4-13.3,8.2-19.8,12.5
	C169.9,186.9,139.7,253.8,120.2,324.2z M86.9,324.2h22.4c10.4-40,24.5-79,42-116.5c9.7-20.9,20.4-41.1,32.1-60.7
	c-14.8,10.7-29.2,22-43.1,33.8c-2.9,5.9-5.8,11.8-8.6,17.7C112.7,238.9,97.8,281,86.9,324.2z M415.3,369.5v26.1L188.2,396
	l-16.3-26.1L415.3,369.5 M437,347.7l-304.2,0.6l43.4,69.5l260.8-0.6L437,347.7L437,347.7z M165,417.7l-43.4-69.5H96l43.4,69.5H165z
	 M128.6,417.7l-43.4-69.5H59.6l43.4,69.5H128.6z"/>
</svg>
